X:24
T:Brisk young miner - Woodrich
%%VWML:SBG-1-2-251-1
F:http://www.vwml.org/record/SBG/1/2/251
Z:Original Sibelius transcriptions by M. & S. Graebe
M:3/4
I:linebreak $
K:G
V:1 treble nm="P1"
V:1
 D2 | BB BA B | GA E3 D | GB d2 ed | cd B3 e |$ dd G3 G/F/ | E E c3 D | DD c2 AF | DF !fermata!G4 | %9
T:Brisk young miner - Fone
F:http://www.vwml.org/record/SBG/1/2/251
Z:Original Sibelius transcriptions by M. & S. Graebe
L:1/8
M:3/4
I:linebreak $
K:G
V:1 treble nm="P1"
V:2 treble 
L:1/4
V:1
 D2 | GF G2 G2 | D2 FE D2 D2 | GF G2 (3DEF65/64 | FG A2 D2 | FA c2 D2 | GB d3 G |$ cA D2 AG | %8
 cB/A/ G4 | B2 | cB d2 A2 | cB G2 B2 | cB d2 c2 | BA G4 | %14
V:2
 x | x3 | x4 | x3 | x3 | x3 | x3 |$ x3 | x3 | x | x3 | x3 | x e d | c/B/ A2 | %14
T:Brisk young miner - American air
F:http://www.vwml.org/record/SBG/1/2/251
Z:Original Sibelius transcriptions by M. & S. Graebe
M:4/4
I:linebreak $
K:C
V:1 treble nm="P1"
V:1
 G2 | G3 G A G ^F G | E2 G G G G | G3 G A G ^F G | D2 G G GF ED | C2 E2 G2 c3/2- c/ |$ dc Bc A3 A | %7
 B3 B B G A B | !fermata!c6"^chorus" G G | F B B B B G F E | C c c c c G E E |$ F B B B B G A B | %12
 c3 A !fermata!G2 G | G2 G A G ^F G | E G G G G2 G | G3 G A2 G2 ^F2 G2 |$ D2 G3/2 G/ GF ED | %17
 C2 E2 G2 c c | d c A c | B3 B B G A B | c6 x2 | %21
T:Brisk young miner - Kidson 1 N Yorks
F:http://www.vwml.org/record/SBG/1/2/251
Z:Original Sibelius transcriptions by M. & S. Graebe
M:3/4
I:linebreak $
K:G
V:1 treble nm="P1"
V:1
 D G F | G3 D F G | D3 D G F | G2 A2 (B/c/) d |$ A3 G A B | c3 B/ B/ A D | G3 G A B | A3 G E/D/ D | %8
 D3 | %9
T:Brisk young miner - Kidson 2 Leeds
F:http://www.vwml.org/record/SBG/1/2/251
Z:Original Sibelius transcriptions by M. & S. Graebe
M:3/4
I:linebreak $
K:G
V:1 treble nm="P1"
V:1
 D G F | G2 A>G F E | D3 D G F | G2 A2 B/c/ d | A3 A B c |$ d2 c B A G | (A>B c/B/A G) E | %7
 D2 D3/2 D/ D/E/ F | G3 x x2 | %9
T:Brisk young miner - Kidson 3 Hewden E Riding
F:http://www.vwml.org/record/SBG/1/2/251
Z:Original Sibelius transcriptions by M. & S. Graebe
M:6/4
I:linebreak $
K:C
V:1 treble nm="P1"
V:1
 A | G2 A G2 E | (D C) D C2 G | c2 _B (A G) F | _B2 A G2 c |$ c2 _B A G A | C2 D (_E D) C | %7
 F2 F _B2 A | (G F) D C2 x | %9
T:Brisk young miner - Kidson 4
F:http://www.vwml.org/record/SBG/1/2/251
Z:Original Sibelius transcriptions by M. & S. Graebe
M:6/4
I:linebreak $
K:D
V:1 treble nm="P1"
V:1
 B | A2 B A2 F | (E D) E D2 A | d c B (A c) e | (d c) B A2 D |$ D D D (d c) d | B (^A B) F2 E | %7
 D2 B B A A | (A E) F D2 x | %9

